X:2043
T:Ec Norree yn Fiddler
T:If I had a love on Phoenix Island 
C:John Radcliffe, The Howe
O:Isle of Man
S:Traditional 
Z:Clague collection
B:Kiaull Vannin #43
L:1/4
M:3/4 
Q:140 
K:D 
A F A|d2 e/f/|g f e|d2 A|A F A|d2 e/f/|g f/d/ e|d3| 
d f e|d2 B|A F D|E2 D|D F G|A2 A/G/|E D D|D3|| 
